kora-light/actions/scalable/view-sort-descending.svg

<svg xmlns="http://www.w3.org/2000/svg" style="fill-rule:evenodd;clip-rule:evenodd;stroke-linejoin:round;stroke-miterlimit:2" width="100%" height="100%" version="1.1" viewBox="0 0 16 16" xml:space="preserve">
 <defs>
  <style id="current-color-scheme" type="text/css">
   .ColorScheme-Text { color:#444444; } .ColorScheme-Highlight { color:#4285f4; } .ColorScheme-NeutralText { color:#ff9800; } .ColorScheme-PositiveText { color:#4caf50; } .ColorScheme-NegativeText { color:#f44336; }
  </style>
 </defs>
 <path style="fill:currentColor;" class="ColorScheme-Text" d="M11.004,12.404l0,-8.031l2.964,2.964c0.273,0.274 0.717,0.274 0.99,-0c0.277,-0.274 0.277,-0.719 -0,-0.993l-4.134,-4.139c-0.143,-0.141 -0.328,-0.209 -0.513,-0.205c-0.185,-0.004 -0.37,0.064 -0.509,0.205l-4.138,4.139c-0.273,0.274 -0.273,0.719 -0,0.993c0.273,0.274 0.721,0.274 0.994,-0l2.959,-2.964l0,8.031c0,0.383 0.31,0.693 0.694,0.693c0.384,0 0.693,-0.31 0.693,-0.693Z"/>
 <path style="fill:currentColor;fill-opacity:0.3" class="ColorScheme-Text" d="M4,11.5c0,0.823 -0.677,1.5 -1.5,1.5c-0.823,0 -1.5,-0.677 -1.5,-1.5c-0,-0.823 0.677,-1.5 1.5,-1.5c0.823,0 1.5,0.677 1.5,1.5Zm0,-4c0,0.823 -0.677,1.5 -1.5,1.5c-0.823,0 -1.5,-0.677 -1.5,-1.5c-0,-0.823 0.677,-1.5 1.5,-1.5c0.823,0 1.5,0.677 1.5,1.5Zm0,-4c0,0.823 -0.677,1.5 -1.5,1.5c-0.823,0 -1.5,-0.677 -1.5,-1.5c-0,-0.823 0.677,-1.5 1.5,-1.5c0.823,-0 1.5,0.677 1.5,1.5Z"/>
</svg>

<svg xmlns="http://www.w3.org/2000/svg" width="16" height="16" version="1.1">
 <defs>
  <style id="current-color-scheme" type="text/css">
   .ColorScheme-Text { color:#444444; } .ColorScheme-Highlight { color:#4285f4; }
  </style>
 </defs>
 <path style="fill:currentColor" class="ColorScheme-Text" d="M 8,13 V 9 H 5 L 10,2 15,9 H 12 V 13 Z M 4,11.5 A 1.5,1.5 0 0 1 2.5,13 1.5,1.5 0 0 1 1,11.5 1.5,1.5 0 0 1 2.5,10 1.5,1.5 0 0 1 4,11.5 Z M 4,7.5 A 1.5,1.5 0 0 1 2.5,9 1.5,1.5 0 0 1 1,7.5 1.5,1.5 0 0 1 2.5,6 1.5,1.5 0 0 1 4,7.5 Z M 4,3.5 A 1.5,1.5 0 0 1 2.5,5 1.5,1.5 0 0 1 1,3.5 1.5,1.5 0 0 1 2.5,2 1.5,1.5 0 0 1 4,3.5 Z"/>
</svg>
